X:1
T:Golden Wedding Day (Old Gray Bonnet)
M:4/4
L:1/4
K:C
 E F ^F| G2 G2| E G2 G/2G/2| A2 A3/2 A/2| A c B A| G2 c2| c c B c|\
 d4-| d2 c d| e2 e2| e d c A| c2 c2| A G E F| G2 e2| e2 d2| c4-| c||\
